X: 1
T: Syrtos from Samos
R: syrtos
O: Greece
M: C
L: 1/8
K: Cm
"A"\
|: "Cm"D>E ^FG FEDC | "G"=B,DCB, A,2 G,2 \
|1,3 "Cm"C=B,C2 zDE^F | G>A G^F EDC2 \
:|2,4 "Cm"C=B,CD E/D/C DB, | CDE^F GFED | C2z2 z4 :|
"B"\
|: "Cm"C/D/C/=B, C2 D/E/D/C/ DE | "D"^F3D EDEF \
|1 "Cm"G^FG3 FG=A | B>=A G^F EDC2 \
:|2 "Cm"G^FG=A B/A/G AF | G2z2 |]
"C"\
|: zG^FG \
| "Fm"=B3A- AB2A | "Cm"G/A/G/^F/ G2 zGAG \
| "Fm"F/G/F/=E/ F2 z^FGF | "Cm"EDC2 zG^FG \
|     A2G2 ^F2E2 | "G"D2{E}C2 {D}=B,CDB, |
| "Cm"CDE^F GFED | C2 z2 \
"D"\
[| z=AB=B \
| "Cm"c2c2 c2B=A | "D"dcB=A B/A/G A^F |
| "Cm"(G2{^F}G2) z^FG=A | B=AG^F EDC2 \
| "Cm"c2c2 c2B=A | "D"dcB=A B/A/G A^F \
| "Cm"G2zc =BcdB | c/d/c/=B/ c2 z=A_B=B |
| "Cm"c2c2 c2B=A | "D"dcB=A B/A/G A^F \
| "Cm"G2z2 z^FG=A | B=AG^F EDC2 \
"E"\
|:"Fm"D=EFE FEF2 | "Cm"zG2F EDC2 |
| "Fm"D>=E F>E F>E F2 | "Cm"zGG^F EDC2 \
| "Cm"z^FGF GFG=A | "G"B=AG^F EDC=B, \
| "Dm"CDE^F GFED | C2z2 z4 :|
